app/dist/common/images/shanghai-microport-ep-medtech.svg

<svg height="18" viewBox="0 0 18 18" width="18" xmlns="http://www.w3.org/2000/svg"><path d="m0 0h18v18h-18z" fill="#f0f3fa"/><path d="m6.81 11c.3 0 .53.24.53.51s-.24.48-.53.48h-1.58c-1.54 0-2.83-1-3.15-2.32h1.07a2.36 2.36 0 0 0 2.17 1.33h1.5zm-1.9-1.5h.47c.22 0 .4-.22.4-.5s-.18-.5-.4-.5h-3.33a2.77 2.77 0 0 0 0 1h2.87zm-2.83-1.16a3.19 3.19 0 0 1 3.15-2.3h.19c.8.02 2.83.43 3.61 1.77-.35.5-.46.88-.47 1-.72-1.54-2.48-1.81-3.14-1.81h-.1c-1 0-1.9.53-2.2 1.34z" fill="#042a73"/><path d="m8.65 9.24v2.76c.58 0 .97-.59 1.05-.88v-1.88c-0-.61 1.04-2.24 2.98-2.24 1.92 0 2.32 1.51 2.32 2s-.32 2-2.32 2c-1.61 0-2.41-1-2.68-1.55v1.43a3.92 3.92 0 0 0 2.59 1.12c1.17-.03 3.4-.66 3.4-3 0-2.33-2.08-2.97-3.17-3-2.98 0-4.02 2.16-4.17 3.24z" fill="#cd001e"/></svg>

<!-- by TradingView --><svg width="18" height="18" viewBox="0 0 18 18" xmlns="http://www.w3.org/2000/svg"><path fill="#F0F3FA" d="M0 0h18v18H0z"/><path d="M6.81 11c.3 0 .53.24.53.51s-.24.48-.53.48H5.23c-1.54 0-2.83-1-3.15-2.32h1.07A2.36 2.36 0 0 0 5.32 11h1.5Zm-1.9-1.5h.47c.22 0 .4-.22.4-.5s-.18-.5-.4-.5H2.05a2.77 2.77 0 0 0 0 1h2.87ZM2.08 8.34a3.19 3.19 0 0 1 3.15-2.3h.19c.8.02 2.83.43 3.61 1.77-.35.5-.46.88-.47 1C7.84 7.27 6.08 7 5.42 7h-.1c-1 0-1.9.53-2.2 1.34H2.08Z" fill="#042A73"/><path d="M8.65 9.24V12c.58 0 .97-.59 1.05-.88V9.24C9.7 8.63 10.74 7 12.68 7 14.6 7 15 8.51 15 9s-.32 2-2.32 2c-1.61 0-2.41-1-2.68-1.55v1.43A3.92 3.92 0 0 0 12.59 12c1.17-.03 3.4-.66 3.4-3 0-2.33-2.08-2.97-3.17-3C9.84 6 8.8 8.16 8.65 9.24Z" fill="#CD001E"/></svg>
